X:1
T:Amar Donna che strugge
T:Gemignano Capilupi
T:Source : Canzonette a tre voci di H.Vecchi et di G.Capilupi da Modena---Venetia---Ang.Gardano---1597. Editor : André Vierendeels (03/03/17).
T:Notes : Original clefs  : C1, C1, F4 Editorial accidentals above the staff Original note values have been halved in 3-beat measures Lute accompaniment is not added in thes edition
T:Amar Donna che strugge
T:©
T:©
T:©
C:Gemignano Capilupi
Z:©
%%score [ 1 2 3 ]
L:1/8
Q:1/4=121
M:2/2
K:C
V:1 treble nm="Soprano 1" snm="S 1"
V:2 treble nm="Soprano 2" snm="S 2"
V:3 bass nm="Bass" snm="B"
V:1
"^1)" z2 d2 d4- | d2 c3 c B2 | A2 A2 B2 c2- | c2 c2 c2 B2 | A2 A2 z4 | z2 G2 G3 F | E2 D2 E4 | %7
w: A- mar|_ Don- na che|strug- ge, se- guir|_ Don- na che|fug- ge,|A- mor piu|non m'ha- vra-|
w: A- mar|_ Don- na ch'ogn'|ho- ra, o- dia|_ piu chi l'a-|do- ra,|no no da-|rei ben va-|
 F4 c2 B2- | B2 B2 A2 A2 | d2 c4 c2 | B2 B2 e2 d2- | d2 c2 B4 | A8 ::[M:6/4] c2 c2 d2 e2 e2 f2 | %14
w: i, in tan-|* ti gua- i,|in tai tor-|men- ti, af- fan-|* ni'e sen-|ti,|hor che'l tuo fo- co, non|
w: go, di fin-|* ta'i- ma- go,|Ha- vrei ben|vo- glia di pe-|* na'e do-|glia;|Ho- mai fe- li- ce vi-|
 d4 d2 e4 c2 |[M:2/2] e2 ee d2 d2 | c4 B4 |[M:6/4] e2 d2 c2 B2 B2 z2 | B2 c2 d2 e2 e2 d2 | %19
w: ha'n me lo- co,|fam- mi se puoi far|peg- gio,|te- ne dis- preg- gio,|te- ne dis- preg- gio, te-|
w: ver mi li- ce,|dis- prez- zo'a- mor- tuo'im-|pe- ro|mu- ta pen- sie- ro,|mu- ta pen- sie- ri mu-|
 c4 B2 A6 | B12 :| %21
w: ne dis- preg-|gio.|
w: ta pen- sie-|ro.|
V:2
"^2)""^1)" z2 B2 B4- | B2 G3 G G2 | ^F2 F2 G2 A2- | A2 A2 A2 G2 | ^F2 F2 z2 G2 | G3 F E2 D2 | %6
w: A- mar|_ Don- na che|strug- ge, se- guir|_ Don- na che|fug- ge, A-|mo piu non m'ha-|
w: A- mar|_ Don- na ch'à|gio- ia, in- va-|* no'a- mor mi|chia- mi, le|re- ti, e- gli|
 ^C2 D4 C2 | D4 A2 G2- | G2 G2 ^F2 F2 | G2 A4 A2 | ^G2 G2 c2 B2- | B2 A2 ^G4 | A8 :: %13
w: vra- * *|i, in tan-|* ti gua- i,|in ttai tor-|men- ti, af- fan-|* ni'e sen-|ti,|
w: ha- * *|mi, in- dar-|* no ten- di,|e l'ar- co|sten- di, pur se|_ de- si-|re,|
[M:6/4] A2 A2 G2 G2 G2 c2 | B4 B2 c4 c2 |[M:2/2] c2 cc B2 G2- | G2 ^F2 G4 | %17
w: hor che'l tuo fo- co, non|ha'n me lo- co,|fam- mi se puoi far|_ peg- gio,|
w: hai di fe- ri- re, ec-|co- mi non mai|sa- ti- o, sa- *|* ti- o.|
[M:6/4] G2 G2 A2 D2 D2 A2 | G4 F2 G2 G2 D2 | E4 G2 ^F6 | G12 :| %21
w: te- ne dis- peg- gio, te-|ne dis- preg- gio, te-|ne dis- preg-|gio|
w: te- ne dis- gra- tio, te-|ne dis- gra- tio, te-|ne dis- gra-|tio.|
V:3
"^3)""^1)""^4)" z2 G,2 G,4- | G,2 C,3 C, G,,2 | D,2 D,2 G,2 F,2- | F,2 F,2 F,2 G,2 | %4
w: A- mar|_ Don- na che|strug- ge, se- guir|_ Don- na che|
w: A- mar|_ Don- na'in- fe-|de- le, in- gra-|* ta'em- pia'e crue|
 D,2 D,2 z2 G,2 | G,6 G,2 | A,2 _B,2 A,4 | D,4 A,,2 B,,2- | B,,2 C,2 D,2 D,2 | B,,2 C,4 D,2 | %10
w: fug- ge, A-|mor piu|non m'ha- vra-|i, in tan-|* ti gua- i,|in tai tor-|
w: de- le, A-|mor in-|giu- sto'e ri-|o, al pe-|* nar mi- o,|al pe- nar|
 E,2 E,2 C,2 D,2- | D,2 D,2 E,4 | A,,8 ::[M:6/4] A,2 A,2 B,2 C2 C2 F,2 | G,4 G,2 C,4 C,2 | %15
w: men- ti, af _|fan- ni'e sten-|ti,|hor che'l tuo fo- co, non|ha'n me lo- co,|
w: mi- o, a la|_ mia fe-|de,|dar tal mer- ce- de? Hor|re- sta'in- gra- to,|
[M:2/2] C2 CC G,2 G,2 | A,4 G,4 |[M:6/4] C2 B,2 A,2 G,2 G,2 F,2 | E,4 D,2 C,2 C,2 B,,2 | %19
w: fam- mi se puoi far|peg- gio,|te- ne dis- preg- gio, te-|ne dis- preg- gio, te-|
w: ei- hnor spie- ta- to;|Di te|cie- co Cu- pi- do, mi|bur- mi lo, e ri-|
 A,,4 G,,2 D,6 | G,,12 :| %21
w: ne dis- preg-|gio.|
w: do, e ri-|do.|

